X: 41131
T: Trip To Toronto
R: jig
M: 6/8
K: Dmajor
|:B|AFA fed|BGB g2B|AFA fed|c2e e2B|
AFA fed|BGB g2g|fed Ace|d3 d2:|
|:g|fdf afd|BGB g2B|AFA fed|c2e e2g|
fdf afd|BGB g2g|fed Ace|d3 d2:|

